X: 15558
T: Gloomy Winter
R: strathspey
M: 4/4
K: Aminor
E|:"Am" A2 A>B "Em" AG E2|"C" c2 c>e "G" d>c B<G|"Am" A<A e2 "Em" A>G EC|
[1"G" D<D E>G "Am" AAA E:|2 "G" D<D E>G "Am" AAA B||
|:"C" c2 c>e "G" d>c Bd|"Am" c>B Ac "Em" Be e2|"C" c2 ce "G" d>c Bd|
[1 "F" c>A c/B/A/G/ "Am" EAA B:|2 "F" c>A c/B/A/G/ "Am" EAA B||
|:"C" c<c g2 "G" B>c d2|"Am" c>B Ac/ "E" Be !fermata!e2|"Am" E2 "Dm" FE/D/ "Am" EA "G" Bd|
[1 "F" c>c c/B/A/G/ "Am"EAA B:|2 "F" c>c c/B/A/G/ "Am" EA !fermata!A||

